FTD_logo.svg

<svg width="150" height="150" viewBox="0 0 150 150" fill="none" xmlns="http://www.w3.org/2000/svg">
<path d="M147.573 1.5L75 146.646L2.42705 1.5H147.573Z" fill="#F8F8F8" stroke="#29166E" stroke-width="3" stroke-miterlimit="1.30541" stroke-linejoin="round"/>
<path d="M72.9141 99H65.4844L65.5312 93.5156H72.9141C74.7578 93.5156 76.3125 93.1016 77.5781 92.2734C78.8438 91.4297 79.7969 90.2031 80.4375 88.5938C81.0938 86.9844 81.4219 85.0391 81.4219 82.7578V81.0938C81.4219 79.3438 81.2344 77.8047 80.8594 76.4766C80.5 75.1484 79.9609 74.0312 79.2422 73.125C78.5234 72.2188 77.6406 71.5391 76.5938 71.0859C75.5469 70.6172 74.3438 70.3828 72.9844 70.3828H65.3438V64.875H72.9844C75.2656 64.875 77.3516 65.2656 79.2422 66.0469C81.1484 66.8125 82.7969 67.9141 84.1875 69.3516C85.5781 70.7891 86.6484 72.5078 87.3984 74.5078C88.1641 76.4922 88.5469 78.7031 88.5469 81.1406V82.7578C88.5469 85.1797 88.1641 87.3906 87.3984 89.3906C86.6484 91.3906 85.5781 93.1094 84.1875 94.5469C82.8125 95.9688 81.1641 97.0703 79.2422 97.8516C77.3359 98.6172 75.2266 99 72.9141 99ZM69.4688 64.875V99H62.4375V64.875H69.4688Z" fill="#29166E"/>
<path d="M50.4062 29.875V64H43.375V29.875H50.4062ZM64 44.4531V49.9375H48.4844V44.4531H64ZM65.6406 29.875V35.3828H48.4844V29.875H65.6406Z" fill="#C3251D"/>
<path d="M50.4062 29.875V64H43.375V29.875H50.4062ZM64 44.4531V49.9375H48.4844V44.4531H64ZM65.6406 29.875V35.3828H48.4844V29.875H65.6406Z" fill="#C3251D"/>
<path d="M98.4219 29.875V64H91.4141V29.875H98.4219ZM108.922 29.875V35.3828H81.0781V29.875H108.922Z" fill="#C3251D"/>
<circle cx="19" cy="11" r="3.75" transform="rotate(-50 19 11)" fill="#EBEBEB" stroke="#C0C0C0" stroke-width="0.5"/>
<rect x="16.8666" y="14.4315" width="1.14286" height="8" rx="0.571429" transform="rotate(-140 16.8666 14.4315)" fill="#C0C0C0"/>
<circle cx="131" cy="12" r="3.75" transform="rotate(50 131 12)" fill="#EBEBEB" stroke="#C0C0C0" stroke-width="0.5"/>
<rect x="127.991" y="9.30312" width="1.14286" height="8" rx="0.571429" transform="rotate(-40 127.991 9.30312)" fill="#C0C0C0"/>
<circle cx="75" cy="127" r="3.75" transform="rotate(-90 75 127)" fill="#EBEBEB" stroke="#C0C0C0" stroke-width="0.5"/>
<rect x="75.5714" y="131" width="1.14286" height="8" rx="0.571429" transform="rotate(180 75.5714 131)" fill="#C0C0C0"/>
</svg>

<svg xmlns="http://www.w3.org/2000/svg" width="150" height="150" fill="none"><path fill="#F8F8F8" stroke="#29166E" stroke-linejoin="round" stroke-miterlimit="1.305" stroke-width="3" d="M147.573 1.5 75 146.646 2.427 1.5z"/><path fill="#29166E" d="M72.914 99h-7.43l.047-5.484h7.383q2.765 0 4.664-1.243 1.899-1.265 2.86-3.68.984-2.413.984-5.835v-1.664q0-2.626-.563-4.617-.538-1.993-1.617-3.352a6.77 6.77 0 0 0-2.648-2.04q-1.57-.702-3.61-.702h-7.64v-5.508h7.64q3.423 0 6.258 1.172a14.1 14.1 0 0 1 4.945 3.305q2.086 2.156 3.211 5.156 1.149 2.976 1.149 6.633v1.617q0 3.633-1.149 6.633-1.125 3-3.21 5.156-2.064 2.133-4.946 3.305Q76.383 99 72.914 99M69.47 64.875V99h-7.031V64.875z"/><path fill="#C3251D" d="M50.406 29.875V64h-7.031V29.875zM64 44.453v5.484H48.484v-5.484zm1.64-14.578v5.508H48.485v-5.508z"/><path fill="#C3251D" d="M50.406 29.875V64h-7.031V29.875zM64 44.453v5.484H48.484v-5.484zm1.64-14.578v5.508H48.485v-5.508zM98.422 29.875V64h-7.008V29.875zm10.5 0v5.508H81.078v-5.508z"/><circle cx="19" cy="11" r="3.75" fill="#EBEBEB" stroke="silver" stroke-width=".5" transform="rotate(-50 19 11)"/><rect width="1.143" height="8" x="16.867" y="14.431" fill="silver" rx=".571" transform="rotate(-140 16.867 14.431)"/><circle cx="131" cy="12" r="3.75" fill="#EBEBEB" stroke="silver" stroke-width=".5" transform="rotate(50 131 12)"/><rect width="1.143" height="8" x="127.991" y="9.303" fill="silver" rx=".571" transform="rotate(-40 127.991 9.303)"/><circle cx="75" cy="127" r="3.75" fill="#EBEBEB" stroke="silver" stroke-width=".5" transform="rotate(-90 75 127)"/><rect width="1.143" height="8" x="75.571" y="131" fill="silver" rx=".571" transform="rotate(180 75.571 131)"/></svg>
